;FLAVOR:UltiGCode
;TIME:1718      
;MATERIAL:7571      
;MATERIAL2:0         

;Layer count: 155
;LAYER:0
M107
G0 F9000 X99.250 Y72.701 Z0.300
;TYPE:SKIRT
G1 F1800 X130.750 Y72.701 E4.72500
G1 X130.750 Y152.299 E16.66470
G1 X99.250 Y152.299 E21.38970
G1 X99.250 Y72.701 E33.32940
G10
G0 F9000 X103.250 Y76.701
;TYPE:WALL-INNER
G11
G1 F1800 X126.750 Y76.701 E36.85440
G1 X126.750 Y148.299 E47.59410
G1 X103.250 Y148.299 E51.11910
G1 X103.250 Y76.701 E61.85880
G0 F9000 X111.778 Y105.444
G1 F1800 X109.920 Y106.637 E62.19001
G1 X108.475 Y108.306 E62.52115
G1 X107.557 Y110.314 E62.85233
G1 X107.242 Y112.500 E63.18362
G1 X107.513 Y114.382 E63.46883
G1 X107.557 Y114.687 E63.51505
G1 X108.475 Y116.694 E63.84610
G1 X109.920 Y118.363 E64.17724
G1 X111.469 Y119.357 E64.45332
G1 X112.250 Y118.931 E64.58676
G1 X112.250 Y116.876 E64.89501
G1 X111.453 Y116.355 E65.03784
G1 X110.392 Y114.992 E65.29693
G1 X109.832 Y113.362 E65.55546
G1 X109.832 Y111.637 E65.81421
G1 X110.367 Y110.078 E66.06145
G1 X110.391 Y110.008 E66.07255
G1 X111.406 Y108.704 E66.32042
G1 X111.452 Y108.646 E66.33152
G1 X112.833 Y107.743 E66.57902
G1 X112.896 Y107.702 E66.59030
G1 X114.498 Y107.297 E66.83816
G1 X114.570 Y107.279 E66.84929
G1 X116.211 Y107.414 E67.09627
G1 X116.283 Y107.420 E67.10711
G1 X117.797 Y108.084 E67.35509
G1 X117.864 Y108.113 E67.36604
G1 X119.080 Y109.233 E67.61402
G1 X119.134 Y109.282 E67.62496
G1 X119.955 Y110.799 E67.88370
G1 X120.227 Y112.429 E68.13158
G1 X120.239 Y112.500 E68.14238
G1 X119.955 Y114.201 E68.40106
G1 X119.133 Y115.718 E68.65987
G1 X117.750 Y116.993 E68.94202
G1 X117.750 Y118.931 E69.23272
G1 X118.531 Y119.357 E69.36617
G1 X120.080 Y118.363 E69.64224
G1 X121.525 Y116.694 E69.97339
G1 X122.443 Y114.686 E70.30457
G1 X122.713 Y112.807 E70.58931
G1 X122.758 Y112.501 E70.63571
G1 X122.443 Y110.314 E70.96714
G1 X121.525 Y108.306 E71.29833
G1 X120.080 Y106.637 E71.62947
G1 X118.222 Y105.444 E71.96068
G1 X116.104 Y104.822 E72.29179
G1 X113.896 Y104.822 E72.62299
G1 X111.778 Y105.444 E72.95411
G0 F9000 X109.954 Y106.677
G0 X108.519 Y108.335
G0 X107.608 Y110.330
G0 X107.295 Y112.500
G0 X107.609 Y114.671
G0 X108.519 Y116.665
G0 X109.954 Y118.323
G0 X111.472 Y119.266
G0 X112.171 Y118.885
G0 X112.175 Y116.916
G0 X113.750 Y113.750
G1 F1800 X113.750 Y123.250 E74.37911
G1 X116.250 Y123.250 E74.75411
G1 X116.250 Y113.750 E76.17911
G1 X113.750 Y113.750 E76.55411
G0 F9000 X114.250 Y114.250
;TYPE:WALL-OUTER
G1 F1800 X114.250 Y122.750 E77.82911
G1 X115.750 Y122.750 E78.05411
G1 X115.750 Y114.250 E79.32911
G1 X114.250 Y114.250 E79.55411
G0 F9000 X114.250 Y113.900
G0 X113.859 Y113.859
G0 X111.352 Y116.472
G0 X111.109 Y116.728
G1 F1800 X109.946 Y115.233 E79.83822
G1 X109.332 Y113.447 E80.12151
G1 X109.332 Y111.553 E80.40561
G1 X109.947 Y109.765 E80.68923
G1 X111.107 Y108.273 E80.97272
G1 X112.693 Y107.237 E81.25687
G1 X114.525 Y106.773 E81.54035
G1 X116.410 Y106.930 E81.82408
G1 X118.143 Y107.690 E82.10793
G1 X119.533 Y108.970 E82.39137
G1 X120.434 Y110.634 E82.67521
G1 X120.746 Y112.500 E82.95899
G1 X120.434 Y114.366 E83.24278
G1 X119.533 Y116.030 E83.52662
G1 X118.250 Y117.212 E83.78829
G1 X118.250 Y118.634 E84.00159
G1 X118.510 Y118.776 E84.04603
G1 X119.749 Y117.981 E84.26685
G1 X121.100 Y116.421 E84.57640
G1 X121.958 Y114.543 E84.88611
G1 X122.253 Y112.500 E85.19573
G1 X121.958 Y110.457 E85.50536
G1 X121.100 Y108.579 E85.81507
G1 X119.749 Y107.019 E86.12462
G1 X118.012 Y105.903 E86.43432
G1 X116.032 Y105.322 E86.74384
G1 X113.968 Y105.322 E87.05344
G1 X111.988 Y105.903 E87.36296
G1 X110.251 Y107.019 E87.67265
G1 X108.900 Y108.579 E87.98220
G1 X108.042 Y110.457 E88.29191
G1 X107.747 Y112.500 E88.60154
G1 X108.042 Y114.543 E88.91117
G1 X108.900 Y116.421 E89.22088
G1 X110.251 Y117.981 E89.53043
G1 X111.490 Y118.776 E89.75125
G1 X111.750 Y118.634 E89.79568
G1 X111.750 Y117.147 E90.01873
G1 X111.109 Y116.728 E90.13360
G0 F9000 X111.352 Y116.472
G0 X112.175 Y116.916
G0 X112.171 Y118.885
G0 X111.472 Y119.266
G0 X103.010 Y148.449
G0 X102.750 Y148.799
G1 F1800 X102.750 Y76.201 E101.02330
G1 X127.250 Y76.201 E104.69830
G1 X127.250 Y148.799 E115.58800
G1 X102.750 Y148.799 E119.26300
G0 F9000 X103.424 Y147.619
;TYPE:FILL
G1 F1800 X103.929 Y148.123 E119.37002
G0 F9000 X104.636 Y148.123
G1 F1800 X103.424 Y146.912 E119.62702
G0 F9000 X103.424 Y146.204
G1 F1800 X105.343 Y148.123 E120.03410
G0 F9000 X106.050 Y148.123
G1 F1800 X103.424 Y145.497 E120.59116
G0 F9000 X103.424 Y144.790
G1 F1800 X106.757 Y148.123 E121.29820
G0 F9000 X107.464 Y148.123
G1 F1800 X103.424 Y144.083 E122.15521
G0 F9000 X103.424 Y143.376
G1 F1800 X108.171 Y148.123 E123.16220
G0 F9000 X108.878 Y148.123
G1 F1800 X103.424 Y142.669 E124.31917
G0 F9000 X103.424 Y141.962
G1 F1800 X109.585 Y148.123 E125.62612
G0 F9000 X110.293 Y148.123
G1 F1800 X103.424 Y141.255 E127.08315
G0 F9000 X103.424 Y140.548
G1 F1800 X111.000 Y148.123 E128.69015
G0 F9000 X111.707 Y148.123
G1 F1800 X103.424 Y139.840 E130.44724
G0 F9000 X103.424 Y139.133
G1 F1800 X112.414 Y148.123 E132.35431
G0 F9000 X113.121 Y148.123
G1 F1800 X103.424 Y138.426 E134.41135
G0 F9000 X103.424 Y137.719
G1 F1800 X113.828 Y148.123 E136.61837
G0 F9000 X114.535 Y148.123
G1 F1800 X103.424 Y137.012 E138.97537
G0 F9000 X103.424 Y136.305
G1 F1800 X115.242 Y148.123 E141.48235
G0 F9000 X115.949 Y148.123
G1 F1800 X103.424 Y135.598 E144.13930
G0 F9000 X103.424 Y134.891
G1 F1800 X116.657 Y148.123 E146.94634
G0 F9000 X117.364 Y148.123
G1 F1800 X103.424 Y134.184 E149.90336
G0 F9000 X103.424 Y133.477
G1 F1800 X118.071 Y148.123 E153.01035
G0 F9000 X118.778 Y148.123
G1 F1800 X103.424 Y132.769 E156.26742
G0 F9000 X103.424 Y132.062
G1 F1800 X119.485 Y148.123 E159.67447
G0 F9000 X120.192 Y148.123
G1 F1800 X103.424 Y131.355 E163.23150
G0 F9000 X103.424 Y130.648
G1 F1800 X120.899 Y148.123 E166.93851
G0 F9000 X121.606 Y148.123
G1 F1800 X103.424 Y129.941 E170.79550
G0 F9000 X103.424 Y129.234
G1 F1800 X122.313 Y148.123 E174.80246
G0 F9000 X123.021 Y148.123
G1 F1800 X103.424 Y128.527 E178.95950
G0 F9000 X103.424 Y127.820
G1 F1800 X123.728 Y148.123 E183.26653
G0 F9000 X124.435 Y148.123
G1 F1800 X103.424 Y127.113 E187.72353
G0 F9000 X103.424 Y126.405
G1 F1800 X125.142 Y148.123 E192.33061
G0 F9000 X125.849 Y148.123
G1 F1800 X103.424 Y125.698 E197.08767
G0 F9000 X103.424 Y124.991
G1 F1800 X126.556 Y148.123 E201.99471
G0 F9000 X126.574 Y147.434
G1 F1800 X103.424 Y124.284 E206.90557
G0 F9000 X103.424 Y123.577
G1 F1800 X126.574 Y146.727 E211.81642
G0 F9000 X126.574 Y146.020
G1 F1800 X103.424 Y122.870 E216.72728
G0 F9000 X103.424 Y122.163
G1 F1800 X126.574 Y145.313 E221.63814
G0 F9000 X126.574 Y144.606
G1 F1800 X103.424 Y121.456 E226.54899
G0 F9000 X103.424 Y120.749
G1 F1800 X126.574 Y143.899 E231.45985
G0 F9000 X126.574 Y143.191
G1 F1800 X103.424 Y120.041 E236.37071
G0 F9000 X103.424 Y112.970
G1 F1800 X113.574 Y123.120 E238.52385
G0 F9000 X113.878 Y123.424
G1 F1800 X126.574 Y136.120 E241.21707
G0 F9000 X126.574 Y136.827
G1 F1800 X103.424 Y113.678 E246.12782
G0 F9000 X103.424 Y114.385
G1 F1800 X126.574 Y137.535 E251.03868
G0 F9000 X126.574 Y138.242
G1 F1800 X103.424 Y115.092 E255.94954
G0 F9000 X103.424 Y115.799
G1 F1800 X126.574 Y138.949 E260.86039
G0 F9000 X126.574 Y139.656
G1 F1800 X103.424 Y116.506 E265.77125
G0 F9000 X103.424 Y117.213
G1 F1800 X126.574 Y140.363 E270.68211
G0 F9000 X126.574 Y141.070
G1 F1800 X103.424 Y117.920 E275.59296
G0 F9000 X103.424 Y118.627
G1 F1800 X126.574 Y141.777 E280.50382
G0 F9000 X126.574 Y142.484
G1 F1800 X103.424 Y119.334 E285.41468
G0 F9000 X108.048 Y116.179
G1 F1800 X103.424 Y111.555 E286.39558
G0 F9000 X103.424 Y110.848
G1 F1800 X107.452 Y114.877 E287.25015
G0 F9000 X107.282 Y113.999
G1 F1800 X103.424 Y110.141 E288.06856
G0 F9000 X103.424 Y109.434
G1 F1800 X107.162 Y113.172 E288.86151
G0 F9000 X107.081 Y112.384
G1 F1800 X103.424 Y108.727 E289.63727
G0 F9000 X103.424 Y108.020
G1 F1800 X107.171 Y111.767 E290.43213
G0 F9000 X107.260 Y111.149
G1 F1800 X103.424 Y107.313 E291.24587
G0 F9000 X103.424 Y106.606
G1 F1800 X107.350 Y110.532 E292.07870
G0 F9000 X107.514 Y109.989
G1 F1800 X103.424 Y105.899 E292.94632
G0 F9000 X103.424 Y105.192
G1 F1800 X107.735 Y109.503 E293.86082
G0 F9000 X107.957 Y109.018
G1 F1800 X103.424 Y104.484 E294.82252
G0 F9000 X103.424 Y103.777
G1 F1800 X108.178 Y108.532 E295.83110
G0 F9000 X108.436 Y108.082
G1 F1800 X103.424 Y103.070 E296.89431
G0 F9000 X103.424 Y102.363
G1 F1800 X108.764 Y107.703 E298.02709
G0 F9000 X109.092 Y107.324
G1 F1800 X103.424 Y101.656 E299.22946
G0 F9000 X103.424 Y100.949
G1 F1800 X109.420 Y106.945 E300.50140
G0 F9000 X109.749 Y106.567
G1 F1800 X103.424 Y100.242 E301.84314
G0 F9000 X103.424 Y99.535
G1 F1800 X110.161 Y106.272 E303.27227
G0 F9000 X110.592 Y105.996
G1 F1800 X103.424 Y98.828 E304.79283
G0 F9000 X103.424 Y98.120
G1 F1800 X111.022 Y105.719 E306.40472
G0 F9000 X111.453 Y105.443
G1 F1800 X103.424 Y97.413 E308.10803
G0 F9000 X103.424 Y96.706
G1 F1800 X111.932 Y105.215 E309.91296
G0 F9000 X112.479 Y105.054
G1 F1800 X103.424 Y95.999 E311.83381
G0 F9000 X103.424 Y95.292
G1 F1800 X113.026 Y104.894 E313.87071
G0 F9000 X113.572 Y104.733
G1 F1800 X103.424 Y94.585 E316.02342
G0 F9000 X103.424 Y93.878
G1 F1800 X114.192 Y104.646 E318.30766
G0 F9000 X114.899 Y104.646
G1 F1800 X103.424 Y93.171 E320.74187
G0 F9000 X103.424 Y92.464
G1 F1800 X115.607 Y104.646 E323.32617
G0 F9000 X116.391 Y104.723
G1 F1800 X103.424 Y91.757 E326.07678
G0 F9000 X103.424 Y91.049
G1 F1800 X117.392 Y105.018 E329.03995
G0 F9000 X118.491 Y105.409
G1 F1800 X103.424 Y90.342 E332.23614
G0 F9000 X103.424 Y89.635
G1 F1800 X126.574 Y112.786 E337.14710
G0 F9000 X126.574 Y113.493
G1 F1800 X121.992 Y108.911 E338.11909
G0 F9000 X122.588 Y110.214
G1 F1800 X126.574 Y114.200 E338.96465
G0 F9000 X126.574 Y114.907
G1 F1800 X122.725 Y111.058 E339.78115
G0 F9000 X122.844 Y111.884
G1 F1800 X126.574 Y115.614 E340.57240
G0 F9000 X126.574 Y116.321
G1 F1800 X122.910 Y112.657 E341.34965
G0 F9000 X122.821 Y113.275
G1 F1800 X126.574 Y117.029 E342.14589
G0 F9000 X126.574 Y117.736
G1 F1800 X122.732 Y113.893 E342.96101
G0 F9000 X122.643 Y114.511
G1 F1800 X126.574 Y118.443 E343.79500
G0 F9000 X126.574 Y119.150
G1 F1800 X122.469 Y115.044 E344.66591
G0 F9000 X122.248 Y115.530
G1 F1800 X126.574 Y119.857 E345.58370
G0 F9000 X126.574 Y120.564
G1 F1800 X122.026 Y116.015 E346.54858
G0 F9000 X121.804 Y116.500
G1 F1800 X126.574 Y121.271 E347.56056
G0 F9000 X126.574 Y121.978
G1 F1800 X121.538 Y116.942 E348.62886
G0 F9000 X121.210 Y117.321
G1 F1800 X126.574 Y122.685 E349.76673
G0 F9000 X126.574 Y123.392
G1 F1800 X120.882 Y117.700 E350.97419
G0 F9000 X120.554 Y118.079
G1 F1800 X126.574 Y124.100 E352.25133
G0 F9000 X126.574 Y124.807
G1 F1800 X120.226 Y118.458 E353.59805
G0 F9000 X118.528 Y119.266
G0 X117.829 Y118.885
G0 X117.817 Y117.023
G0 X120.041 Y112.616
G1 F1800 X114.906 Y107.482 E354.68724
G0 F9000 X114.255 Y107.538
G1 F1800 X119.940 Y113.222 E355.89311
G0 F9000 X119.839 Y113.829
G1 F1800 X113.691 Y107.681 E357.19729
G0 F9000 X113.127 Y107.823
G1 F1800 X119.667 Y114.364 E358.58474
G0 F9000 X119.419 Y114.822
G1 F1800 X112.661 Y108.065 E360.01823
G0 F9000 X112.233 Y108.344
G1 F1800 X119.170 Y115.281 E361.48979
G0 F9000 X118.887 Y115.705
G1 F1800 X111.806 Y108.624 E362.99189
G0 F9000 X111.430 Y108.955
G1 F1800 X116.049 Y113.574 E363.97173
G0 F9000 X116.424 Y113.949
G1 F1800 X118.519 Y116.044 E364.41615
G0 F9000 X118.151 Y116.383
G1 F1800 X116.424 Y114.656 E364.78250
G0 F9000 X116.424 Y115.363
G1 F1800 X117.783 Y116.722 E365.07079
G0 F9000 X117.574 Y117.221
G1 F1800 X116.424 Y116.070 E365.31484
G0 F9000 X116.424 Y116.777
G1 F1800 X117.574 Y117.928 E365.55890
G0 F9000 X117.574 Y118.635
G1 F1800 X116.424 Y117.485 E365.80285
G0 F9000 X116.424 Y118.192
G1 F1800 X126.574 Y128.342 E367.95599
G0 F9000 X126.574 Y129.049
G1 F1800 X116.424 Y118.899 E370.10913
G0 F9000 X116.424 Y119.606
G1 F1800 X126.574 Y129.756 E372.26228
G0 F9000 X126.574 Y130.464
G1 F1800 X116.424 Y120.313 E374.41552
G0 F9000 X116.424 Y121.020
G1 F1800 X126.574 Y131.171 E376.56877
G0 F9000 X126.574 Y131.878
G1 F1800 X116.424 Y121.727 E378.72201
G0 F9000 X116.424 Y122.434
G1 F1800 X126.574 Y132.585 E380.87526
G0 F9000 X126.574 Y133.292
G1 F1800 X116.424 Y123.141 E383.02851
G0 F9000 X116.000 Y123.424
G1 F1800 X126.574 Y133.999 E385.27170
G0 F9000 X126.574 Y134.706
G1 F1800 X115.293 Y123.424 E387.66486
G0 F9000 X114.585 Y123.424
G1 F1800 X126.574 Y135.413 E390.20811
G0 F9000 X126.574 Y127.635
G1 F1800 X118.450 Y119.511 E391.93148
G0 F9000 X118.945 Y119.298
G1 F1800 X126.574 Y126.928 E393.54994
G0 F9000 X126.574 Y126.221
G1 F1800 X119.375 Y119.022 E395.07708
G0 F9000 X119.806 Y118.745
G1 F1800 X126.574 Y125.514 E396.51289
G0 F9000 X113.859 Y123.141
G0 X113.574 Y122.413
G1 F1800 X103.424 Y112.263 E398.66603
G0 F9000 X109.954 Y118.323
G0 X111.472 Y119.266
G0 X112.171 Y118.885
G0 X112.175 Y116.916
G0 X110.006 Y112.481
G1 F1800 X113.574 Y116.049 E399.42292
G0 F9000 X113.574 Y116.756
G1 F1800 X110.006 Y113.188 E400.17981
G0 F9000 X110.300 Y114.189
G1 F1800 X113.574 Y117.463 E400.87433
G0 F9000 X113.574 Y118.170
G1 F1800 X112.425 Y117.021 E401.11807
G0 F9000 X112.425 Y117.728
G1 F1800 X113.574 Y118.878 E401.36191
G0 F9000 X113.574 Y119.585
G1 F1800 X112.425 Y118.435 E401.60576
G0 F9000 X112.355 Y119.072
G1 F1800 X113.574 Y120.292 E401.86445
G0 F9000 X113.574 Y120.999
G1 F1800 X111.897 Y119.322 E402.22020
G0 F9000 X111.367 Y119.499
G1 F1800 X113.574 Y121.706 E402.68837
G0 F9000 X112.175 Y116.916
G0 X111.731 Y116.327
G1 F1800 X111.379 Y115.975 E402.76304
G0 F9000 X113.574 Y115.342
G1 F1800 X110.006 Y111.774 E403.51993
G0 F9000 X110.159 Y111.220
G1 F1800 X113.574 Y114.635 E404.24436
G0 F9000 X113.574 Y113.928
G1 F1800 X110.339 Y110.693 E404.93061
G0 F9000 X110.520 Y110.166
G1 F1800 X113.928 Y113.574 E405.65355
G0 F9000 X114.635 Y113.574
G1 F1800 X110.811 Y109.750 E406.46475
G0 F9000 X111.121 Y109.353
G1 F1800 X115.342 Y113.574 E407.36016
G0 F9000 X119.946 Y111.814
G1 F1800 X115.677 Y107.545 E408.26575
G0 F9000 X116.579 Y107.741
G1 F1800 X119.805 Y110.966 E408.94998
G0 F9000 X119.063 Y109.517
G1 F1800 X118.291 Y108.745 E409.11375
G0 F9000 X117.829 Y118.885
G0 X118.528 Y119.266
G0 X120.046 Y118.323
G0 X121.481 Y116.665
G0 X122.392 Y114.670
G0 X122.705 Y112.501
G0 X122.392 Y110.330
G0 X126.574 Y108.543
G1 F1800 X103.424 Y85.393 E414.02460
G0 F9000 X103.424 Y86.100
G1 F1800 X126.574 Y109.250 E418.93546
G0 F9000 X126.574 Y109.957
G1 F1800 X103.424 Y86.807 E423.84632
G0 F9000 X103.424 Y87.514
G1 F1800 X126.574 Y110.665 E428.75728
G0 F9000 X126.574 Y111.372
G1 F1800 X103.424 Y88.221 E433.66824
G0 F9000 X103.424 Y88.928
G1 F1800 X126.574 Y112.079 E438.57920
G0 F9000 X126.574 Y107.836
G1 F1800 X103.424 Y84.685 E443.49017
G0 F9000 X103.424 Y83.978
G1 F1800 X126.574 Y107.129 E448.40113
G0 F9000 X126.574 Y106.422
G1 F1800 X103.424 Y83.271 E453.31209
G0 F9000 X103.424 Y82.564
G1 F1800 X126.574 Y105.715 E458.22305
G0 F9000 X126.574 Y105.008
G1 F1800 X103.424 Y81.857 E463.13402
G0 F9000 X103.424 Y81.150
G1 F1800 X126.574 Y104.301 E468.04498
G0 F9000 X126.574 Y103.593
G1 F1800 X103.424 Y80.443 E472.95584
G0 F9000 X103.424 Y79.736
G1 F1800 X126.574 Y102.886 E477.86669
G0 F9000 X126.574 Y102.179
G1 F1800 X103.424 Y79.029 E482.77755
G0 F9000 X103.424 Y78.321
G1 F1800 X126.574 Y101.472 E487.68851
G0 F9000 X126.574 Y100.765
G1 F1800 X103.424 Y77.614 E492.59948
G0 F9000 X103.424 Y76.907
G1 F1800 X126.574 Y100.058 E497.51044
G0 F9000 X126.574 Y99.351
G1 F1800 X104.100 Y76.876 E502.27800
G0 F9000 X104.807 Y76.876
G1 F1800 X126.574 Y98.644 E506.89558
G0 F9000 X126.574 Y97.937
G1 F1800 X105.514 Y76.876 E511.36319
G0 F9000 X106.221 Y76.876
G1 F1800 X126.574 Y97.230 E515.68082
G0 F9000 X126.574 Y96.522
G1 F1800 X106.928 Y76.876 E519.84837
G0 F9000 X107.635 Y76.876
G1 F1800 X126.574 Y95.815 E523.86593
G0 F9000 X126.574 Y95.108
G1 F1800 X108.342 Y76.876 E527.73353
G0 F9000 X109.050 Y76.876
G1 F1800 X126.574 Y94.401 E531.45103
G0 F9000 X126.574 Y93.694
G1 F1800 X109.757 Y76.876 E535.01856
G0 F9000 X110.464 Y76.876
G1 F1800 X126.574 Y92.987 E538.43612
G0 F9000 X126.574 Y92.280
G1 F1800 X111.171 Y76.876 E541.70369
